img/bottle.svg

<svg width="317" height="242" viewBox="0 0 317 242" fill="none" xmlns="http://www.w3.org/2000/svg">
<path d="M9.95677 109.915L9.10185 137.755L46.0557 135.244L46.7081 115.178L9.95677 109.915Z" fill="#A16125"/>
<path d="M9.61351 119.71L46.4465 124.775L46.7084 115.178L9.95701 109.915L9.61351 119.71Z" fill="#7E4F1F"/>
<path d="M285.49 95.8434C290.973 96.0313 295.139 100.527 294.961 106L292.89 161.992C292.712 167.464 288.215 171.613 282.732 171.425L148.314 166.443C127.335 165.624 110.988 148.002 111.688 127.262C112.469 106.324 130.093 90.0418 150.874 90.7791L285.49 95.8434Z" fill="#27675C"/>
<path d="M58.5795 109.791L57.4863 140.747L180.482 145.306L181.575 114.351L58.5795 109.791Z" fill="#27675C"/>
<path d="M43.0674 109.975L42.0715 139.836C41.7774 145.029 46.0242 149.328 51.0302 149.549C56.2341 149.853 60.5326 145.622 60.7452 140.626L61.741 110.765C62.0352 105.571 57.7883 101.273 52.7823 101.051C47.5784 100.748 43.1637 104.699 43.0674 109.975Z" fill="#27675C"/>
<path d="M115.749 111.84L61.8705 109.894C61.8035 105.013 57.8708 101.076 52.8648 100.854C47.6609 100.551 43.3624 104.781 43.1499 109.777L42.5938 124.568L293.827 133.955L294.764 105.918C294.942 100.445 290.776 95.9496 285.293 95.7616L150.875 90.7792C135.577 90.2298 122.207 99.0278 115.749 111.84Z" fill="#20564D"/>
<path d="M140.084 125.833C140.037 126.507 139.99 127.181 140.42 127.821C140.851 128.461 141.363 128.904 142.038 128.952L212.978 141.19L279.012 162.492C279.606 162.737 280.362 162.588 281.003 162.159C281.841 161.813 282.284 161.303 282.331 160.629L286.859 142.397C286.906 141.723 286.953 141.049 286.523 140.409C286.092 139.769 285.58 139.326 284.905 139.278L216.421 127.824L148.048 106.017C147.454 105.772 146.697 105.921 146.057 106.349C145.416 106.778 144.973 107.288 144.926 107.962L140.084 125.833Z" fill="#348A7A"/>
</svg>

<svg width="317" height="242" fill="none" xmlns="http://www.w3.org/2000/svg"><path d="M9.957 109.915l-.855 27.84 36.954-2.511.652-20.066-36.751-5.263z" fill="#A16125"/><path d="M9.614 119.71l36.833 5.065.261-9.597-36.751-5.263-.343 9.795z" fill="#7E4F1F"/><path d="M285.49 95.843c5.483.188 9.649 4.684 9.471 10.157l-2.071 55.992c-.178 5.472-4.675 9.621-10.158 9.433l-134.418-4.982c-20.979-.819-37.326-18.441-36.626-39.181.781-20.938 18.405-37.22 39.186-36.483l134.616 5.064z" fill="#27675C"/><path d="M58.58 109.791l-1.094 30.956 122.996 4.559 1.093-30.955-122.995-4.56z" fill="#27675C"/><path d="M43.067 109.975l-.995 29.861c-.295 5.193 3.952 9.492 8.958 9.713 5.204.304 9.503-3.927 9.715-8.923l.996-29.861c.294-5.194-3.953-9.492-8.959-9.714-5.204-.303-9.618 3.648-9.715 8.924z" fill="#27675C"/><path d="M115.749 111.84l-53.878-1.946c-.068-4.881-4-8.818-9.006-9.04-5.204-.303-9.503 3.927-9.715 8.923l-.556 14.791 251.233 9.387.937-28.037c.178-5.473-3.988-9.968-9.471-10.156l-134.418-4.983c-15.298-.55-28.668 8.249-35.126 21.061z" fill="#20564D"/><path d="M140.084 125.833c-.047.674-.094 1.348.336 1.988.431.64.943 1.083 1.618 1.131l70.94 12.238 66.034 21.302c.594.245 1.35.096 1.991-.333.838-.346 1.281-.856 1.328-1.53l4.528-18.232c.047-.674.094-1.348-.336-1.988-.431-.64-.943-1.083-1.618-1.131l-68.484-11.454-68.373-21.807c-.594-.245-1.351-.096-1.991.332-.641.429-1.084.939-1.131 1.613l-4.842 17.871z" fill="#348A7A"/></svg>
